X: 13783
T: Forth Brig, The
R: strathspey
M: 4/4
K: Dmajor
A,|D<(D F>D) A>DF>D|(A,>D)(F>A) (3DFA (3Bcd|A,>(A, C>E) A>EC>E|(3efe (3dcB (3ABG (3FGE|
D<(D F>D) A>DF>D|(A,>D)(F>A) (3FGA (3Bcd|G>AB>G F>GAF|(3GAB (3ABc d<D D>g||
f<d d>g (3fed (3cBA|(f>g)(c>a) (B>g)(A>F)|G>Be>G F>Ad>F|G<E e>d c/d/e A>g|
f<d d>e (3fed (3cBA|d<b c<a B<g A>F|G<e F<d E<c D>g|(3fed (3cde f<d d||

